map_marker_monochrome/openmoji_firefox.svg

<svg xmlns="http://www.w3.org/2000/svg" width="24" height="24" viewBox="0 0 24 24"> <g transform="translate(0.42814972664232975 0.0) scale(0.43667359522104415)">
  
  <g
     id="line"
     transform="translate(-10,-8.3779392)">
    <path
       fill="none"
       stroke="#000"
       stroke-linecap="round"
       stroke-linejoin="round"
       stroke-width="2"
       d="m 52,37.85 c 0,-5.799 -4.701,-10.5 -10.5,-10.5 -0.8615,0 -1.6988,0.1038 -2.5,0.2995 4.592,1.1215 8,5.263 8,10.2005 0,4.9375 -3.408,9.0284 -8,10.15 -4,0.977 -11.5,-0.5 -14.5,-7"
       id="path2" />
    <path
       fill="none"
       stroke="#000"
       stroke-linecap="round"
       stroke-linejoin="round"
       stroke-width="2"
       d="M 55.0537,22.9043 C 49.9777,19.7645 45.9995,15.0196 43.8273,9.37788 40.1296,12.1465 37.332,16.0517 35.9529,20.5753 M 35,31.3902 C 32.7597,30.8964 30.9316,28.8204 29.2069,26.8618 28.7458,26.3381 28.2921,25.8229 27.8398,25.3484 27.3972,23.3541 27.0702,20.0724 28.5,19 26.522,19 24.1816,21.2643 22.7667,22.9936 22.1412,22.9352 21.5,22.95 20.9159,23 l 0.0015,-0.0047 C 20.3247,21.4438 20,19.7598 20,18 20,17.6736 20.0112,17.3498 20.0331,17.029 14.5078,21.7066 11,28.6937 11,36.5 c 0,0.0566 2e-4,0.113 6e-4,0.1695 -4e-4,0.0564 -6e-4,0.1129 -6e-4,0.1694 0,14.0833 11.4167,25.5 25.5,25.5 14.0833,0 25.5,-11.4167 25.5,-25.5 0,-0.0565 -2e-4,-0.113 -5e-4,-0.1694 C 61.9998,36.613 62,36.5566 62,36.5 62,28.9478 58.7169,22.1624 53.5,17.4931"
       id="path4" />
    <path
       fill="none"
       stroke="#000"
       stroke-linecap="round"
       stroke-width="2"
       d="M 30,24.4644 C 31.795,23.5289 33.8357,23 36,23 c 2.3679,0 4.5879,0.6331 6.5,1.7392"
       id="path6" />
  </g>
</g></svg>

<svg xmlns="http://www.w3.org/2000/svg" width="24" height="24" viewBox="0 0 24 24"> <g transform="scale(0.333333333)">  <g id="line">
    <path fill="none" stroke="#000" stroke-linecap="round" stroke-linejoin="round" stroke-width="2" d="M52 37.85C52 32.051 47.299 27.35 41.5 27.35C40.6385 27.35 39.8012 27.4538 39 27.6495C43.592 28.771 47 32.9125 47 37.85C47 42.7875 43.592 46.8784 39 48C35 48.977 27.5 47.5 24.5 41"/>
    <path fill="none" stroke="#000" stroke-linecap="round" stroke-linejoin="round" stroke-width="2" d="M55.0537 22.9043C49.9777 19.7645 45.9995 15.0196 43.8273 9.37788C40.1296 12.1465 37.332 16.0517 35.9529 20.5753M35 31.3902C32.7597 30.8964 30.9316 28.8204 29.2069 26.8618C28.7458 26.3381 28.2921 25.8229 27.8398 25.3484C27.3972 23.3541 27.0702 20.0724 28.5 19C26.522 19 24.1816 21.2643 22.7667 22.9936C22.1412 22.9352 21.5 22.95 20.9159 23L20.9174 22.9953C20.3247 21.4438 20 19.7598 20 18C20 17.6736 20.0112 17.3498 20.0331 17.029C14.5078 21.7066 11 28.6937 11 36.5C11 36.5566 11.0002 36.613 11.0006 36.6695C11.0002 36.7259 11 36.7824 11 36.8389C11 50.9222 22.4167 62.3389 36.5 62.3389C50.5833 62.3389 62 50.9222 62 36.8389C62 36.7824 61.9998 36.7259 61.9995 36.6695C61.9998 36.613 62 36.5566 62 36.5C62 28.9478 58.7169 22.1624 53.5 17.4931"/>
    <path fill="none" stroke="#000" stroke-linecap="round" stroke-width="2" d="M30 24.4644C31.795 23.5289 33.8357 23 36 23C38.3679 23 40.5879 23.6331 42.5 24.7392"/>
  </g></g></svg>
